X:1
T:Worthy Is the Lamb!
T:Worthy Is the Lamb!
T:Scott Werdebaugh, 1969
T:Johnson Oatman, 1898, & Scott Werdebaugh, 1969
T:© 1969 Scott Werdebaugh. Reproduce or publish freely for Christian worship or devotions. Courtesy of the Cyber Hymnal™
C:Scott Werdebaugh, 1969
Z:© 1969 Scott Werdebaugh. Reproduce or publish freely for Christian worship or devotions.
Z:Courtesy of the Cyber Hymnal™
%%score 1 2
L:1/8
Q:1/4=97
M:4/4
K:G
V:1 treble 
V:2 bass 
V:1
"^Joyfully Rejoicing" [B,D]>[B,D] [B,D]>[DG] [GB]2 [DG]2 | [EG]>[EG] [CE]>[EG] [B,D]3 z | %2
w: 1.~“Wor- thy is the Lamb!” the|hosts of Heav- en sing.|
w: 2.~Wor- thy is the Lamb, who|shed His pre- cious blood|
w: 3.~Wor- thy is the Lamb, the|bleed- ing sac- ri- fice|
w: 4.~“Wor- thy is the Lamb,” let|men and an- gels sing,|
 [B,D]>[B,D] [B,D]>[DG] [GB]2 [DG]2 | [EG]>[EG] [CE]>[EG] [FA]3 z | %4
w: As be- fore the throne they|make His prais- es ring;|
w: To res- tore a world to|hap- pi- ness and God;|
w: Who for Ad- am’s race paid|such a fear- ful price;|
w: “Wor- thy is the Lamb,” let|hal- le- lu- jahs ring;|
 [GB]>[GB] [GB]>[FA] [DG]2 [B,D]2 | [EG]>[EG] [CE]>[EG] [B,D]3 z | [B,D]2 [DG]2 [GB]2 [DG]2 | %7
w: “Wor- thy is the Lamb the|book to o- pen wide;|Wor- thy is the|
w: When no eye could pit- y|and no arm could save,|Je- sus’ life for|
w: Wor- thy is the Lamb, the|Pas- chal Lamb of God,|For the world is|
w: And when life is past, up-|on the gold- en shore,|“Wor- thy is the|
 [GB]>[GB] [FA]>[FA] [DG]3 z ||"^Refrain" [EG]>[CE] [EG]>[CE] [B,D]2 [DG]2 | %9
w: Lamb who for us died.”||
w: us He free- ly gave.|Je- sus, Lamb of God, Oh,|
w: saved through His dear blood.||
w: Lamb for- ev- er- more.”||
 [FA]>[DF] [FA]>[FA] [GB]2 [DG]2 | [EG]>[CE] [EG]>[CE] [B,D]2 [DG]2 | %11
w: ||
w: Je- sus, Lamb of God, Our|pre- cious Lamb of God, All|
w: ||
w: ||
 [GB]>[GB] [FA]>[FA] !fermata![DG]3 z"^Play 4 times" :| %12
w: |
w: praise to Him a- lone!|
w: |
w: |
V:2
 [G,,G,]>[G,,G,] [G,,G,]>[B,,G,] [D,G,]2 [B,,G,]2 | [C,G,]>[C,G,] [E,G,]>[C,G,] [G,,G,]3 z | %2
 [G,,G,]>[G,,G,] [G,,G,]>[B,,G,] [D,G,]2 [B,,G,]2 | [C,G,]>[C,G,] [E,G,]>[C,G,] [D,F,]3 z | %4
 [D,G,]>[D,G,] [D,G,]>[D,A,] [G,B,]2 [G,,G,]2 | [C,G,]>[C,G,] [E,G,]>[C,E,] [G,,G,]3 z | %6
 [G,,G,]2 [B,,G,]2 [D,G,]2 [B,,G,]2 | [D,G,]>[D,G,] [D,F,]>[C,F,] [B,,G,]3 z || %8
 [C,G,]>[E,G,] [C,E,]>[E,G,] [G,,G,]2 [B,,G,]2 | [D,A,]>[F,A,] [D,A,]>[D,A,] [D,B,]2 [B,,G,]2 | %10
 [C,G,]>[E,G,] [C,E,]>[E,G,] [G,,G,]2 [B,,G,]2 | %11
 [D,G,]>[D,G,] [D,F,]>[C,F,] !fermata![B,,G,]3 z"^Play 4 times" :| %12

